X: 3
T: Johnny McIljohn's
M: 4/4
L: 1/8
R: highland fling
K: Dmaj
|: D>E |\
F2 A>F B>A (3FGA | B>AF>A B<dd>D | 
F>A (3FGA B>AF>A | B<dA>F E2 :|
|: d>e |\
f>gf>e d>cd>A | B>AF>A B>A (3FGA | 
[1 f2 f>e d2 d>A | (3Bcd A>F E2 :|
[2 f2 f>e (3def b>f | a>f (3edc d2 |]
